X: 18838
T: Impeachment
R: reel
M: 4/4
K: Gmajor
|:G2GF GBAG|FGFE FDEF|G2GF GABd|cBAG FE (3FED|
G2GF GABd|cBAG FGAF|GABd cAFA|GAGF G4:|
|:gagf gbag|fgfe fdef|gdBG ABce|dAFE DE (3FED|
gagf gdBG|FAGF GABd|cedc BAGB|AGFD G4:|

